X:1
T:Title
%%score { ( 1 3 ) | 2 }
L:1/8
Q:1/4=100
M:4/4
K:A
V:1 treble nm="Grand Piano"
V:3 treble 
V:2 bass 
V:1
 [Ec]>[Fd] [Ec]>[DB] [CA]>[DB] [Ec]>[EA] | F2 A2 E2 A2 | G<G G>A B2 E2 | [CA]<[CA] [EA]>B c4 | %4
w: Willima~Edie~Marks * * * * * * *||||
 [Ec]>[Fd] [Ec]>[DB] [CA]>[DB] [Ec]>[EA] | F2 A2 E2 A2 | G<G G>A B>B A>G |[M:3/4] [CEA]6 | %8
w: ||||
[M:1/4] A2 |[M:4/4] [Fd]<[Fd] [Fd]>[Fd] [Fd]2 [DF]2 | [CE]<[Ec] [Ec]>[Ec] [Ec]4 | %11
w: |||
 [EB]<[EB] [Ge]>[Ge] [A^d]>[AB] [Ac]>[Ad] | e4 d2 z2 | [Ec]>[Fd] [Ec]>[DB] [CA]>[DB] [Ec]>[EA] | %14
w: |||
 F2 A2 E2 A2 | G<G G>A B>B A>G |[M:3/4] [CEA]6 |] %17
w: |||
V:2
 [A,,A,]>[A,,A,] [A,,A,]>[A,,A,] [A,,A,]>[A,,A,] [A,,A,]>[C,A,] | %1
 [D,A,D]2 [F,A,D]2 [A,C]2 [A,CE]2 | [E,B,E]<[E,B,E] [E,B,E]>[E,CE] [E,DE]2 [E,G,D]2 | %3
 [A,,A,]<[A,,A,] [C,A,]>[E,G,E] [A,E]4 | %4
 [A,,A,]>[A,,A,] [A,,A,]>[A,,A,] [A,,A,]>[A,,A,] [A,,A,]>[B,,A,] | %5
 [D,A,D]2 [F,A,D]2 [A,C]2 [A,CE]2 | [E,B,E]<[E,B,E] [E,B,E]>[E,CE] [E,DE]>[E,DE] [E,CE]>[E,B,E] | %7
[M:3/4] A,,6 |[M:1/4] A,2 |[M:4/4] [D,A,]<[D,A,] [D,A,]>[D,A,] [D,A,]2 [D,A,]2 | %10
 [A,,A,]<[A,,A,] [A,,A,]>[A,,A,] [A,,A,]4 | %11
 [E,G,]<[E,G,] [E,B,]>[E,B,] [F,B,]>[F,B,] [B,,B,]>[B,,B,] | [E,B,]6 z2 | %13
 [A,,A,]>[A,,A,] [A,,A,]>[A,,A,] [A,,A,]>[A,,A,] [A,,A,]>[C,A,] | %14
 [D,A,D]2 [F,A,D]2 [A,C]2 [A,CE]2 | [E,B,E]<[E,B,E] [E,B,E]>[E,CE] [E,DE]>[E,DE] [E,CE]>[E,B,E] | %16
[M:3/4] A,,6 |] %17
V:3
 x8 | x8 | x8 | x8 | x8 | x8 | x8 |[M:3/4] x6 |[M:1/4] x2 |[M:4/4] x8 | x8 | x8 | G6 z2 | x8 | x8 | %15
 x8 |[M:3/4] x6 |] %17

